src/16/actions/final_activity.svg

<svg xmlns="http://www.w3.org/2000/svg" viewBox="0 0 16 16">
  <defs id="defs3051">
    <style type="text/css" id="current-color-scheme">
      .ColorScheme-Text {
        color:#5d656b;
      }
      </style>
  </defs>
 <path style="fill:currentColor;fill-opacity:1;stroke:none" 
     d="m8 2c-3.314 0-6 2.686-6 6 0 3.314 2.686 6 6 6 3.314 0 6-2.686 6-6 0-3.314-2.686-6-6-6m0 1c1.2 0 2.263.452 3.125 1.156l-3.125 3.125-3.125-3.125c.862-.704 1.925-1.156 3.125-1.156m-3.844 1.875l3.125 3.125-3.125 3.125c-.704-.862-1.156-1.925-1.156-3.125 0-1.2.452-2.263 1.156-3.125m7.688 0c.704.862 1.156 1.925 1.156 3.125 0 1.2-.452 2.263-1.156 3.125l-3.125-3.125zm-3.844 3.844l3.125 3.125c-.862.704-1.925 1.156-3.125 1.156-1.2 0-2.263-.452-3.125-1.156z"
     class="ColorScheme-Text"
     />
</svg>

<svg xmlns="http://www.w3.org/2000/svg" viewBox="0 0 16 16"><path d="M8 2a6 6 0 1 0 0 12A6 6 0 0 0 8 2m0 1c1.2 0 2.263.452 3.125 1.156L8 7.281 4.875 4.156C5.737 3.452 6.8 3 8 3M4.156 4.875L7.281 8l-3.125 3.125C3.452 10.263 3 9.2 3 8s.452-2.263 1.156-3.125m7.688 0C12.548 5.737 13 6.8 13 8s-.452 2.263-1.156 3.125L8.719 8zM8 8.719l3.125 3.125C10.263 12.548 9.2 13 8 13s-2.263-.452-3.125-1.156z" fill="currentColor" color="#5d656b"/></svg>
